packages/IcoMoon/src/CropIcon/index.svg

<svg version="1.1" xmlns="http://www.w3.org/2000/svg" width="16" height="16" viewBox="0 0 16 16">
<path d="M13 4l3-3-1-1-3 3h-7v-3h-2v3h-3v2h3v8h8v3h2v-3h3v-2h-3v-7zM5 5h5l-5 5v-5zM6 11l5-5v5h-5z"></path>
</svg>

<svg xmlns="http://www.w3.org/2000/svg" viewBox="0 0 16 16">
  <path d="M13 4l3-3-1-1-3 3H5V0H3v3H0v2h3v8h8v3h2v-3h3v-2h-3V4zM5 5h5l-5 5V5zm1 6l5-5v5H6z"/>
</svg>
